!!!!SEGMENT: pl-kk--kk-i-636--001-011_anonim--in-corona-domini-responsorium-8vum.krn
!!!cenid: 18xx:4533
!!!COM: Anonim
!!!COM-rismID: pe30004985
!!!CDT:
!!!CNT:
!!!OPR: In Corona Domini
!!!OTL: Responsorium 8vum
!!!OMV: 011
!!!PDT:
!!!AGN: Sacred
!!!YEC: Copyright 2022 Narodowy Instytut Fryderyka Chopina (https://polishscores.org)
!!!YEM: License CC-BY-4.0 (https://creativecommons.org/licenses/by/4.0)
!!!SMS-siglum: PL-Kk
!!!SMS-shelfmark: Kk.I.636
!!!SMS-variant:
!!!SMS-altvar:
!!!SMS-shelfwork: 001-011 M
!!!NIFC-rismSourceID: 1001216440
!!!NIFC-rismChildID: 1001217484
!!!NIFC-islandoraID: pl-kk:40786
!!!URL-pdf-islandora: https://repozytorium.nifc.pl/islandora/object/pl-kk%3A40786/datastream/PDF/view
!!!URL-scan: https://polish.musicsources.pl/pl/lokalizacje/galeria/rekopisy/7271/1 @EN{Scan on Polish Music Sources Website} @PL{Skany w portalu Dziedzictwo Muzyki Polskiej w otwartym dostępie}
!!!IIIF:
!!!ONB-nifc: UWAGA: Lamentacje i Responsoria In Corona Domini na skanach: S – 1-7, A – 24-30, T – 45-52, B – 70-78. Każda Lamentacja i Responsorium to oddzielne pliki.
!!!AIN: 1 alto 1 bass 1 soprn 1 tenor
!!!key: g
**kern	**text	**kern	**text	**kern	**text	**kern	**text
*part4	*part4	*part3	*part3	*part2	*part2	*part1	*part1
*staff4	*staff4	*staff3	*staff3	*staff2	*staff2	*staff1	*staff1
*ICvox	*	*ICvox	*	*ICvox	*	*ICvox	*
*Ibass	*	*Itenor	*	*Ialto	*	*Isoprn	*
*I"Basso.	*	*I"Tenore.	*	*I"Alto.	*	*I"Soprano.	*
*I'B	*	*I'T	*	*I'A	*	*I'S	*
*clefF4	*	*clefC4	*	*clefC3	*	*clefC1	*
*kcancel	*	*kcancel	*	*kcancel	*	*kcancel	*
*k[b-e-a-d-g-]	*	*k[b-e-a-d-g-]	*	*k[b-e-a-d-g-]	*	*k[b-e-a-d-g-]	*
*g:	*	*g:	*	*g:	*	*g:	*
*M4/4	*	*M4/4	*	*M4/4	*	*M4/4	*
*met(c)	*	*met(c)	*	*met(c)	*	*met(c)	*
*all\right	*	*all\right	*	*all\right	*	*all\right	*
=1	=1	=1	=1	=1	=1	=1	=1
*2\right	*	*2\right	*	*2\right	*	*2\right	*
!!LO:TX:t=P:problem:all\right
2BB-/	U-	2B-\	U-	2f\	U-	2dd-\	U-
2E-\	-na	2c\	-na	4.g-\	.	2an\	-na
.	.	.	.	8f\	-na	.	.
!LO:LB:g=original	!	!	!	!	!	!	!
=2	=2	=2	=2	=2	=2	=2	=2
4D-\	ho-	4B-\	ho-	4f\	ho-	4b-\	ho-
4D-\	-ra,	4B-\	-ra,	4f\	-ra	4b-\	-ra,
4r	.	4r	.	2f\	non	4r	.
4D-\	u-	4B-\	u-	.	.	4f/	u-
!	!	!LO:LB:g=original	!	!LO:LB:g=original	!	!LO:LB:g=original	!
=3	=3	=3	=3	=3	=3	=3	=3
2AAn/	.	2c\	.	4f\	u-	2ee-\	.
.	.	.	.	2g-X\	.	.	.
2BB-/	-na	2B-\	-na	.	.	2dd-\	-na
.	.	.	.	8f\L	-na	.	.
.	.	.	.	8en\J	.	.	.
=4	=4	=4	=4	=4	=4	=4	=4
4F\	ho-	4An\	ho-	4f\	ho-	4cc\	ho-
4F\	-ra	4A\	-ra	4f\	-ra	4cc\	-ra
2G-X\	non	4r	.	2b-\	non	4r	.
.	.	8d-X\L	non	.	.	8b-\L	non
.	.	8c\J	.	.	.	8cc\J	.
=5	=5	=5	=5	=5	=5	=5	=5
2.G-\	po-	4.B-\	po-	2.b-\	po-	4dd-X\	po-
.	.	.	.	.	.	4ddn\	.
.	.	8B-\	.	.	.	.	.
.	.	4B-\	.	.	.	4ee-X\	.
4G-\	-tu-	4c\	-tu-	4b-\	-tu-	4een\	-tu-
!LO:LB:g=original	!	!	!	!	!	!	!
=6	=6	=6	=6	=6	=6	=6	=6
2F\	-is-	4d-X\	-is-	4b-\	-is-	4ff\	-i-
.	.	8c\L	.	8an\L	.	4ff\	-stis
.	.	8B-\J	.	8gn\J	.	.	.
4F\	-tis	8c\	.	4a\	-tis	2ff\	vi-
.	.	8c\	-tis	.	.	.	.
4r	.	4r	.	4r	.	.	.
!	!	!LO:LB:g=original	!	!LO:LB:g=original	!	!LO:LB:g=original	!
=7	=7	=7	=7	=7	=7	=7	=7
4r	.	4r	.	4r	.	4.gg-X\	.
8E-\	vi-	8c\	vi-	4.a-X\	vi-	.	.
8E-\	-gi-	8c\	-gi-	.	.	8ee-\	-gi-
4A-X\	-la-	4c\	-la-	.	.	4ee-\	-la-
.	.	.	.	8a-\	-gi-	.	.
4A-\	-re,	4c\	-re,	8a-\	-la-	4ee-\	-re
.	.	.	.	8a-\	-re,	.	.
=8	=8	=8	=8	=8	=8	=8	=8
4r	.	4r	.	4r	.	4.ff\	vi-
8D-X\	vi-	8d-X\	vi-	4.a-X\	vi-	.	.
8D-\	-gi-	8d-\	-gi-	.	.	8dd-X\	-gi-
4G-X\	-la	4B-\	-la-	.	.	4dd-\	-la-
.	.	.	.	8g-X\	-gi-	.	.
4G-\	re	4B-\	-re	8g-\	-la-	4dd-\	-re
.	.	.	.	8g-\	-re	.	.
!LO:PB:g=original	!	!	!	!	!	!	!
=9	=9	=9	=9	=9	=9	=9	=9
4r	.	8r	.	4r	.	4.ee-\	u-
.	.	4B-\	u-	.	.	.	.
8E-\	u-	.	.	8g-X\	u-	.	.
8E-\	-na	8B-\	-na	8g-\	-na	8ee-\	-na
4En\	ho-	4B-\	ho-	4gn\	ho-	4dd-X\	ho-
4E\	-ra	4d-X\	-ra	4g\	-ra	4b-\	-ra
!	!	!	!	!LO:LB:g=original	!	!LO:LB:g=original	!
=10	=10	=10	=10	=10	=10	=10	=10
4F\	vi-	4c\	vi-	4f\	vi-	4b-\	vi-
4F\	-gi-	4c\	-gi-	4f\	-gi-	8an\L	-gi-
.	.	.	.	.	.	8gn\J	.
4F\	-la-	4c\	-la-	4f\	-la-	4a\	-la-
4F\	-re	4F/	-re	4f\	-re	4f/	-re
!	!	!LO:LB:g=original	!	!	!	!	!
=11	=11	=11	=11	=11	=11	=11	=11
4.G-X\	vi-	4.G-/	vi-	4.g-X\	vi-	4.g-X\	vi-
8B-\	-gi-	8B-\	-gi-	8b-\	-gi-	8b-\	-gi-
4d-\	-la-	4d-X\	-la-	4dd-X\	-la-	4dd-X\	-la-
4G-\	-re	4G-/	-re	4g-\	-re	4g-\	-re
!LO:LB:g=original	!	!	!	!	!	!	!
=12	=12	=12	=12	=12	=12	=12	=12
4.F\	me-	4.F/	me-	4.f\	me-	4.f/	me-
8B-\	.	8B-\	.	8b-\	.	8b-\	.
4d-\	-cum,	4d-X\	-cum,	4dd-X\	-cum,	4dd-X\	-cum.
4r	.	4F/	vel	4r	.	4r	.
=13	=13	=13	=13	=13	=13	=13	=13
!LO:TX:a:t=3.:mod=	!	!	!	!LO:TX:b:t=3.:mod=	!	!LO:TX:a:t=1:mod=	!
0r	.	4G-X/	Ju-	0r	.	1r	.
.	.	4Gn/	-dam	.	.	.	.
.	.	4A-X/	non	.	.	.	.
.	.	4An/	vi-	.	.	.	.
!	!	!	!	!	!	!LO:LB:g=original	!
=14	=14	=14	=14	=14	=14	=14	=14
.	.	4.B-\	-dis-	.	.	2r	.
.	.	8c\	.	.	.	.	.
.	.	4d-X\	-tis,	.	.	4r	.
.	.	4r	.	.	.	4f/	quo-
!	!	!LO:LB:g=original	!	!	!	!	!
=15	=15	=15	=15	=15	=15	=15	=15
1r	.	8r	.	1r	.	4g-X\	.
.	.	8B-\	quo-	.	.	.	.
.	.	8e-\	-mo-	.	.	4gn\	-mo-
.	.	8d-X\	-do	.	.	.	.
.	.	8c\L	non	.	.	4a-X\	-do
.	.	8g-X\	.	.	.	.	.
.	.	8f\	.	.	.	4an\	non
.	.	8e-\J	.	.	.	.	.
!	!	!	!	!LO:TX:b:rj:t=V.S.:mod=	!	!	!
!	!	!	!	!LO:PB:g=original	!	!	!
=16	=16	=16	=16	=16	=16	=16	=16
2r	.	8d-X\L	dor-	2r	.	4.b-\	dor-
.	.	8c\	.	.	.	.	.
.	.	8B-\	.	.	.	.	.
.	.	8An\J	.	.	.	8cc\	.
4r	.	4B-\	-mit,	4r	.	4dd-X\	-mit
4E-\	sed	4A\	sed	4g-X\	sed	4cc\	sed
=17	=17	=17	=17	=17	=17	=17	=17
2D-/	fe-	2.B-\	fe-	2f\	fe-	2ff\	fe-
2C/	-sti-	.	.	2f\	-sti-	2ee-\	-sti-
!	!	!LO:SIC:v:s=4A\	!	!	!	!	!
.	.	4A-\	-sti-	.	.	.	.
!	!	!	!	!	!	!LO:LB:g=original	!
=18	=18	=18	=18	=18	=18	=18	=18
2BB-/	-nat	2B-\	-nat,	2f\	-nat	2dd-X\	-nat,
2G-\	tra-	2B-\	tra-	2e-\	tra-	2ee-\	tra-
!LO:LB:g=original	!	!LO:LB:g=original	!	!	!	!	!
=19	=19	=19	=19	=19	=19	=19	=19
2F\	-de-	8B-\L	-de-	4f\	-de-	2dd-X\	-de-
.	.	8c\	.	.	.	.	.
.	.	8d-X\	.	2b-\	.	.	.
.	.	8e-\J	.	.	.	.	.
2F\	-re	4.f\	.	.	.	2cc\	-re
.	.	.	.	4an\	-re	.	.
.	.	8e-\	-re	.	.	.	.
=20	=20	=20	=20	=20	=20	=20	=20
2BB-/	me	4d-X\	me	4b-\	me	1b-	me
.	.	8dn\L	.	8f\L	.	.	.
.	.	8e-\J	.	8g-X\J	.	.	.
4r	.	2f\	.	2a-X\	.	.	.
4BB-/	tra-	.	.	.	.	.	.
=21	=21	=21	=21	=21	=21	=21	=21
4.E-\	-de-	4f\	.	4a-\	.	1b-	Ju-
.	.	8e-\L	.	8g-X\L	.	.	.
8F\	-re	8dn\J	.	8f\J	.	.	.
4G-\	me	4e-\	,	4e-\	.	.	.
4E-\	Ju-	4e-\	Ju-	4g-\	Ju-	.	.
=22	=22	=22	=22	=22	=22	=22	=22
!	!LO:MO:mod=-dae-	!	!LO:MO:mod=-dae-	!	!LO:MO:mod=-dae-	!	!LO:MO:mod=-dae-
1BB-	-de-	2e-\	-de-	2g-\	-de-	1b-	-de-
.	.	4dn\	.	4f\	.	.	.
.	.	4c#X\	.	4en\	.	.	.
=23	=23	=23	=23	=23	=23	=23	=23
2BB-/	-is.	4dn\	-is.	4f\	-is.	4b-\	-is.
.	.	4r	.	4r	.	4r	.
2r	.	2r	.	2r	.	2r	.
!LO:LB:g=original	!	!LO:LB:g=original	!	!	!	!LO:LB:g=original	!
=24||	=24||	=24||	=24||	=24||	=24||	=24||	=24||
*k[b-e-]	*	*k[b-e-]	*	*k[b-e-]	*	*k[b-e-]	*
*B-:	*	*B-:	*	*B-:	*	*B-:	*
*M4/4	*	*M4/4	*	*M4/4	*	*M4/4	*
*met(c)	*	*met(c)	*	*met(c)	*	*met(c)	*
!LO:TX:t=P:problem:znaki - kasowniki przed bemolami	!	!	!	!LO:TX:t=P:problem:znaki - kasowniki przed bemolami	!	!LO:TX:t=P:problem:znaki - kasowniki przed bemolami	!
2r	.	2r	.	2r	.	2r	.
2D\	Quid	2A\	Quid	2f#X\	Quid	2dd\	Quid
!	!	!	!	!LO:LB:g=original	!	!	!
=25	=25	=25	=25	=25	=25	=25	=25
2E-\	dor-	2G/	dor-	2g\	dor-	2b-\	dor-
2C/	-mi-	2A/	-mi-	2an\	-mi-	2cc\	-mi-
=26	=26	=26	=26	=26	=26	=26	=26
2D;\	-tis,	2F#X;/	-tis,	2f#X;\	-tis,	2a;\	-tis,
2GG/	sur-	2B-\	sur-	2d\	sur-	2b-\	sur-
=27	=27	=27	=27	=27	=27	=27	=27
2C/	-gi-	2c\	.	2e-\	.	2g\	.
!	!	!LO:SIC:v:s=2c#X\	!	!	!	!	!
2AA/	.	2c\	-gi-	2en\	-gi-	2a\	-gi-
=28	=28	=28	=28	=28	=28	=28	=28
2D;\	-te,	2d;\	-te	2d;\	-te	2f#X;/	-te
2Cn/	et	2F#X/	et	2f#X\	et	[2dd\	et
!LO:LB:g=original	!	!	!	!	!	!	!
=29	=29	=29	=29	=29	=29	=29	=29
2BB-/	.	2G/	.	2g\	.	2dd\]	.
2BBn/	o-	2A-X/	o-	2a-X\	o-	2ff\	o-
!	!	!LO:PB:g=original	!	!	!	!LO:LB:g=original	!
=30	=30	=30	=30	=30	=30	=30	=30
2C/	-ra-	2G/	-ra-	4g\	-ra-	2ee-\	-ra-
.	.	.	.	4an\	.	.	.
2Dn/	.	2F/	.	2b-\	.	2dd\	.
!	!	!	!	!LO:LB:g=original	!	!	!
=31	=31	=31	=31	=31	=31	=31	=31
2E-\	.	2.F/	.	2b-\	.	1cc	.
2F\	.	.	.	2an\	.	.	.
.	.	4E-/	.	.	.	.	.
=32	=32	=32	=32	=32	=32	=32	=32
1BB-;	-te,	1D;	-te,	1b-;	-te,	1b-;	-te,
=33||	=33||	=33	=33	=33	=33	=33	=33
!	!	!LO:SIC:v:s=2A/	!	!	!	!	!
2E-\	ut	2F#X/	ut	2f\	ut	2a\	ut
!	!	!LO:SIC:v:s=2B-/	!	!	!	!	!
2D\	.	2G/	.	2f\	.	2b-\	.
=34	=34	=34	=34	=34	=34	=34	=34
!	!	!LO:SIC:v:s=2A/	!	!	!	!	!
2C/	non	2G/	non	2a\	non	2cc\	non
!	!	!LO:SIC:v:s=2B-/	!	!	!	!	!
2BB-/	in-	2A-X/	in-	2b-\	in-	2dd\	in-
!LO:LB:g=original	!	!	!	!	!	!	!
=35	=35	=35	=35	=35	=35	=35	=35
2C/	-tre-	1G	-tre-	2a\	-tre-	2cc\	-tre-
2C#X/	.	.	.	2g\	.	2b-\	.
=36	=36	=36	=36	=36	=36	=36	=36
1D;	-tis	1F#X;	-tis	1f#X;	-tis	1a;	-tis
!	!	!	!	!	!	!LO:LB:g=original	!
=37	=37	=37	=37	=37	=37	=37	=37
2E-\	in	2G/	in	2g\	in	2g\	in
2D\	ten-	2F#X/	ten-	2f#X\	ten-	2a\	ten-
!	!	!LO:LB:g=original	!	!LO:LB:g=original	!	!	!
=38	=38	=38	=38	=38	=38	=38	=38
!	!	!LO:SIC:v:s=2G/	!	!	!	!	!
2G\	-ta-	2F#X/	-ta-	2g\	-ta-	2b-\	-ta-
!	!	!LO:SIC:v:s=2G/	!	!	!	!	!
2C/	-ti-	2F#/	-ti-	2g\	-ti-	2cc\	-ti-
=39	=39	=39	=39	=39	=39	=39	=39
1D	-o-	2G/	-o-	2g\	-o-	1a	-o-
.	.	2F#X/	.	2f#X\	.	.	.
=40	=40	=40	=40	=40	=40	=40	=40
2GG/	-nem.	1G	-nem.	2g\	-nem.	2g\	-nem.
2r	.	.	.	2r	.	2r	.
==	==	==	==	==	==	==	==
*-	*-	*-	*-	*-	*-	*-	*-
!!!system-decoration: [(s1,s2,s3,s4)]
!!!RDF**kern: > = above
!!!RDF**kern: < = below
!!!RDF**kern: i = editorial accidental
!!!ENC: Anastazja Marusiak
!!!EED: Katarzyna Serwa
!!!END: 2023-11-15
!!!EEV: 2024-06-04
!!!YEM: Copyright © 2023 by [Copyright Holder]
